X:685
T: Stoney Batter
T: B\'othar na gCloch
S: B.Breathnach:"Ceol Rince na hEireann" IV/65
Z: B.Black
L: 1/8
M: 12/8
Q: 360
R: jig
K: D
F2F FED F2A A2c|B2G A2F EFE E2G|
F2F FED F2A A2c|Bcd e2c d2B A2G|
F2F FED F2A A2c|B2G A2F EFE E2G|
F2F FED F2A A2c|Bcd ecA d3 d2 ||
e|f2d d2f ecA A2c|BdB A2F EFE E2g|
f2d d2f ecA A2c|Bcd ecA d3 d2e|
f2g agf ecA A2c|BdB A2F E3 A2G|
F2F FED F2A A2c|Bcd e2c d2B A2G ||
